svg/fluentui-system-icons/ic_fluent_clock_dismiss_20_regular.svg

<svg width="20" height="20" viewBox="0 0 20 20" fill="none" xmlns="http://www.w3.org/2000/svg">
<path d="M11 1C15.4183 1 19 4.58172 19 9C19 13.4183 15.4183 17 11 17C10.802 17 10.6056 16.9928 10.4111 16.9787C10.5686 16.6673 10.6973 16.3389 10.7938 15.997C10.8623 15.999 10.931 16 11 16C14.866 16 18 12.866 18 9C18 5.13401 14.866 2 11 2C7.13401 2 4 5.13401 4 9C4 9.06897 4.001 9.1377 4.00298 9.20619C3.66109 9.30268 3.33271 9.4314 3.02134 9.58886C3.0072 9.39442 3 9.19805 3 9C3 4.58172 6.58172 1 11 1ZM10.5 4C10.7455 4 10.9496 4.17688 10.9919 4.41012L11 4.5V9H13.5C13.7761 9 14 9.22386 14 9.5C14 9.74546 13.8231 9.94961 13.5899 9.99194L13.5 10H10.5C10.2545 10 10.0504 9.82312 10.0081 9.58988L10 9.5V4.5C10 4.22386 10.2239 4 10.5 4ZM10 14.5C10 16.9853 7.98528 19 5.5 19C3.01472 19 1 16.9853 1 14.5C1 12.0147 3.01472 10 5.5 10C7.98528 10 10 12.0147 10 14.5ZM7.35355 13.3536C7.54882 13.1583 7.54882 12.8417 7.35355 12.6464C7.15829 12.4512 6.84171 12.4512 6.64645 12.6464L5.5 13.7929L4.35355 12.6464C4.15829 12.4512 3.84171 12.4512 3.64645 12.6464C3.45118 12.8417 3.45118 13.1583 3.64645 13.3536L4.79289 14.5L3.64645 15.6464C3.45118 15.8417 3.45118 16.1583 3.64645 16.3536C3.84171 16.5488 4.15829 16.5488 4.35355 16.3536L5.5 15.2071L6.64645 16.3536C6.84171 16.5488 7.15829 16.5488 7.35355 16.3536C7.54882 16.1583 7.54882 15.8417 7.35355 15.6464L6.20711 14.5L7.35355 13.3536Z" fill="#212121"/>
</svg>

<svg xmlns="http://www.w3.org/2000/svg" width="20" height="20"><path d="M11 1a8 8 0 1 1-.589 15.979 5.48 5.48 0 0 0 .383-.982 7 7 0 1 0-6.79-6.79 5.384 5.384 0 0 0-.983.382A8 8 0 0 1 11 1Zm-.5 3a.5.5 0 0 1 .492.41L11 4.5V9h2.5a.5.5 0 0 1 .09.992L13.5 10h-3a.5.5 0 0 1-.492-.41L10 9.5v-5a.5.5 0 0 1 .5-.5ZM10 14.5a4.5 4.5 0 1 1-9 0 4.5 4.5 0 0 1 9 0Zm-2.646-1.146a.5.5 0 0 0-.708-.708L5.5 13.793l-1.146-1.147a.5.5 0 0 0-.708.708L4.793 14.5l-1.147 1.146a.5.5 0 0 0 .708.708L5.5 15.207l1.146 1.147a.5.5 0 0 0 .708-.708L6.207 14.5l1.147-1.146Z"/></svg>
